X: 37015
T: Siena, The
R: waltz
M: 3/4
K: Dmajor
"1"FG|A2 D2 de|B3 A GF|EF GA Bc|A2 FE FG|
"5"A2 D2 de|B3 A GF|BA GE DC|D4 FG||
"9"A2 D2 de|B3 A GF|EF GA Bc|A2 d2 e2|
"13"B3 A GF|A3 F de|cA GE DC|D4 fe||
"17"f2 d2 fg|ec A2 de|dA FD FG|G4 fe|
"21"f3 d ga|ec Ac de|fg a3 A|B4 AG|
"25"A2 E2 AG|A2 D2 AG|A2 DE FA|B2 BA GF|
"29" EF GA Bd|e2 AB GF|EF GA Bc|A2 ag fe|
"33"f4 ed|eA a4|de dA FD|G4 fe|
"37"f3 d ga|ec (3ABc de|fg a3 A|Bz A3 G|
"41"A2 E2 AG|A2 D2 AG|A2 DE FA|B>c BA GF|
"45"EF GA Bd|e2 AB GF|EF GA ED|E4||

